;FLAVOR:Marlin
;TIME:658
;Filament used: 0.365327m
;Layer height: 0.2
;MINX:104.7
;MINY:104.7
;MINZ:0.2
;MAXX:130.3
;MAXY:130.3
;MAXZ:10
;Generated with Cura_SteamEngine 4.6.2
M104 S205
M105
M109 S205
M82 ;absolute extrusion mode
; Ender 3 Custom Start G-code
G92 E0 ; Reset Extruder
G28 ; Home all axes
G1 Z2.0 F3000 ; Move Z Axis up little to prevent scratching of Heat Bed
G1 X0.1 Y20 Z0.3 F5000.0 ; Move to start position
G1 X0.1 Y200.0 Z0.3 F1500.0 E15 ; Draw the first line
G1 X0.4 Y200.0 Z0.3 F5000.0 ; Move to side a little
G1 X0.4 Y20 Z0.3 F1500.0 E30 ; Draw the second line
G92 E0 ; Reset Extruder
G1 Z2.0 F3000 ; Move Z Axis up little to prevent scratching of Heat Bed
G1 X5 Y20 Z0.3 F5000.0 ; Move over to prevent blob squish
G92 E0
G92 E0
G1 F2700 E-5
;LAYER_COUNT:50
;LAYER:0
M107
M204 S500
G0 F6000 X106.985 Y107.102 Z0.2
M204 S600
;TYPE:SKIRT
G1 F2700 E0
G1 F1200 X107.102 Y106.985 E0.0055
G1 X107.688 Y106.455 E0.03178
G1 X108.324 Y105.988 E0.05803
G1 X109.004 Y105.587 E0.08428
G1 X109.722 Y105.257 E0.11057
G1 X110.469 Y105.002 E0.13682
G1 X111.238 Y104.823 E0.16308
G1 X112.022 Y104.723 E0.18937
G1 X112.617 Y104.7 E0.20917
G1 X122.383 Y104.7 E0.53399
G1 X123.172 Y104.74 E0.56027
G1 X123.952 Y104.859 E0.58651
G1 X124.717 Y105.057 E0.61279
G1 X125.457 Y105.331 E0.63904
G1 X126.166 Y105.679 E0.66531
G1 X126.837 Y106.097 E0.6916
G1 X127.461 Y106.58 E0.71784
G1 X127.898 Y106.985 E0.73766
G1 X128.015 Y107.102 E0.74316
G1 X128.545 Y107.688 E0.76944
G1 X129.012 Y108.324 E0.79569
G1 X129.413 Y109.004 E0.82194
G1 X129.743 Y109.722 E0.84823
G1 X129.998 Y110.469 E0.87448
G1 X130.177 Y111.238 E0.90074
G1 X130.277 Y112.022 E0.92703
G1 X130.3 Y112.617 E0.94683
G1 X130.3 Y122.383 E1.27165
G1 X130.26 Y123.172 E1.29793
G1 X130.141 Y123.952 E1.32417
G1 X129.943 Y124.717 E1.35045
G1 X129.669 Y125.457 E1.3767
G1 X129.321 Y126.166 E1.40297
G1 X128.903 Y126.837 E1.42926
G1 X128.42 Y127.461 E1.45551
G1 X128.015 Y127.898 E1.47532
G1 X127.898 Y128.015 E1.48083
G1 X127.312 Y128.545 E1.50711
G1 X126.676 Y129.012 E1.53335
G1 X125.996 Y129.413 E1.55961
G1 X125.278 Y129.743 E1.58589
G1 X124.531 Y129.998 E1.61214
G1 X123.762 Y130.177 E1.6384
G1 X122.978 Y130.277 E1.66469
G1 X122.383 Y130.3 E1.68449
G1 X112.617 Y130.3 E2.00931
G1 X111.828 Y130.26 E2.03559
G1 X111.048 Y130.141 E2.06183
G1 X110.283 Y129.943 E2.08811
G1 X109.543 Y129.669 E2.11436
G1 X108.834 Y129.321 E2.14063
G1 X108.163 Y128.903 E2.16692
G1 X107.539 Y128.42 E2.19317
G1 X107.102 Y128.015 E2.21298
G1 X106.985 Y127.898 E2.21849
G1 X106.455 Y127.312 E2.24477
G1 X105.988 Y126.676 E2.27101
G1 X105.587 Y125.996 E2.29727
G1 X105.257 Y125.278 E2.32355
G1 X105.002 Y124.531 E2.3498
G1 X104.823 Y123.762 E2.37606
G1 X104.723 Y122.978 E2.40235
G1 X104.7 Y122.383 E2.42215
G1 X104.7 Y112.617 E2.74697
G1 X104.74 Y111.828 E2.77325
G1 X104.859 Y111.048 E2.79949
G1 X105.057 Y110.283 E2.82577
G1 X105.331 Y109.543 E2.85202
G1 X105.679 Y108.834 E2.87829
G1 X106.097 Y108.163 E2.90458
G1 X106.58 Y107.539 E2.93083
G1 X106.985 Y107.102 E2.95065
M204 S500
G0 F6000 X107.384 Y107.267
M204 S600
G1 F1200 X107.956 Y106.753 E2.97622
G1 X108.578 Y106.3 E3.00182
G1 X109.243 Y105.914 E3.02739
G1 X109.945 Y105.599 E3.05298
G1 X110.676 Y105.359 E3.07857
G1 X111.427 Y105.196 E3.10413
G1 X112.192 Y105.112 E3.12973
G1 X112.617 Y105.1 E3.14387
G1 X122.383 Y105.1 E3.46869
G1 X123.151 Y105.14 E3.49427
G1 X123.911 Y105.259 E3.51985
G1 X124.654 Y105.457 E3.54543
G1 X125.373 Y105.731 E3.57102
G1 X126.059 Y106.078 E3.59659
G1 X126.706 Y106.494 E3.62217
G1 X127.306 Y106.975 E3.64775
G1 X127.733 Y107.384 E3.66741
G1 X128.247 Y107.956 E3.69299
G1 X128.7 Y108.578 E3.71858
G1 X129.086 Y109.243 E3.74416
G1 X129.401 Y109.945 E3.76975
G1 X129.641 Y110.676 E3.79534
G1 X129.804 Y111.427 E3.8209
G1 X129.888 Y112.192 E3.8465
G1 X129.9 Y112.617 E3.86064
G1 X129.9 Y122.383 E4.18546
G1 X129.86 Y123.151 E4.21103
G1 X129.741 Y123.911 E4.23662
G1 X129.543 Y124.654 E4.2622
G1 X129.269 Y125.373 E4.28779
G1 X128.922 Y126.059 E4.31336
G1 X128.506 Y126.706 E4.33894
G1 X128.025 Y127.306 E4.36452
G1 X127.616 Y127.733 E4.38418
G1 X127.044 Y128.247 E4.40976
G1 X126.422 Y128.7 E4.43535
G1 X125.757 Y129.086 E4.46093
G1 X125.055 Y129.401 E4.48652
G1 X124.324 Y129.641 E4.51211
G1 X123.573 Y129.804 E4.53767
G1 X122.808 Y129.888 E4.56327
G1 X122.383 Y129.9 E4.57741
G1 X112.617 Y129.9 E4.90223
G1 X111.849 Y129.86 E4.9278
G1 X111.089 Y129.741 E4.95339
G1 X110.346 Y129.543 E4.97896
G1 X109.627 Y129.269 E5.00456
G1 X108.941 Y128.922 E5.03012
G1 X108.294 Y128.506 E5.05571
G1 X107.694 Y128.025 E5.08129
G1 X107.267 Y127.616 E5.10095
G1 X106.753 Y127.044 E5.12653
G1 X106.3 Y126.422 E5.15212
G1 X105.914 Y125.757 E5.1777
G1 X105.599 Y125.055 E5.20329
G1 X105.359 Y124.324 E5.22888
G1 X105.196 Y123.573 E5.25444
G1 X105.112 Y122.808 E5.28003
G1 X105.1 Y122.383 E5.29418
G1 X105.1 Y112.617 E5.61899
G1 X105.14 Y111.849 E5.64457
G1 X105.259 Y111.089 E5.67016
G1 X105.457 Y110.346 E5.69573
G1 X105.731 Y109.627 E5.72132
G1 X106.078 Y108.941 E5.74689
G1 X106.494 Y108.294 E5.77248
G1 X106.975 Y107.694 E5.79805
G1 X107.384 Y107.267 E5.81772
M204 S500
G0 F6000 X107.55 Y107.667
M204 S600
G1 F1200 X107.667 Y107.55 E5.82322
G1 X108.224 Y107.05 E5.84812
G1 X108.83 Y106.613 E5.87297
G1 X109.48 Y106.242 E5.89786
G1 X110.166 Y105.943 E5.92275
G1 X110.88 Y105.719 E5.94764
G1 X111.613 Y105.572 E5.9725
G1 X112.617 Y105.5 E6.00598
G1 X122.383 Y105.5 E6.3308
G1 X123.13 Y105.54 E6.35568
G1 X123.868 Y105.659 E6.38055
G1 X124.59 Y105.857 E6.40545
G1 X125.286 Y106.13 E6.43031
G1 X125.949 Y106.477 E6.4552
G1 X126.572 Y106.892 E6.4801
G1 X127.333 Y107.55 E6.51356
G1 X127.45 Y107.667 E6.51906
G1 X127.95 Y108.224 E6.54396
G1 X128.387 Y108.83 E6.56881
G1 X128.758 Y109.48 E6.5937
G1 X129.057 Y110.166 E6.61859
G1 X129.281 Y110.88 E6.64348
G1 X129.428 Y111.613 E6.66834
G1 X129.5 Y112.617 E6.70182
G1 X129.5 Y122.383 E7.02664
G1 X129.46 Y123.13 E7.05152
G1 X129.341 Y123.868 E7.07639
G1 X129.143 Y124.59 E7.10129
G1 X128.87 Y125.286 E7.12615
G1 X128.523 Y125.949 E7.15104
G1 X128.108 Y126.572 E7.17594
G1 X127.45 Y127.333 E7.2094
G1 X127.333 Y127.45 E7.2149
G1 X126.776 Y127.95 E7.2398
G1 X126.17 Y128.387 E7.26465
G1 X125.52 Y128.758 E7.28954
G1 X124.834 Y129.057 E7.31443
G1 X124.12 Y129.281 E7.33932
G1 X123.387 Y129.428 E7.36418
G1 X122.383 Y129.5 E7.39766
G1 X112.617 Y129.5 E7.72248
G1 X111.87 Y129.46 E7.74736
G1 X111.132 Y129.341 E7.77223
G1 X110.41 Y129.143 E7.79713
G1 X109.714 Y128.87 E7.82199
G1 X109.051 Y128.523 E7.84688
G1 X108.428 Y128.108 E7.87178
G1 X107.667 Y127.45 E7.90524
G1 X107.55 Y127.333 E7.91074
G1 X107.05 Y126.776 E7.93564
G1 X106.613 Y126.17 E7.96049
G1 X106.242 Y125.52 E7.98538
G1 X105.943 Y124.834 E8.01027
G1 X105.719 Y124.12 E8.03516
G1 X105.572 Y123.387 E8.06002
G1 X105.5 Y122.383 E8.0935
G1 X105.5 Y112.617 E8.41832
G1 X105.54 Y111.87 E8.4432
G1 X105.659 Y111.132 E8.46806
G1 X105.857 Y110.41 E8.49297
G1 X106.13 Y109.714 E8.51783
G1 X106.477 Y109.051 E8.54272
G1 X106.892 Y108.428 E8.56762
G1 X107.55 Y107.667 E8.60108
M204 S500
G0 F6000 X107.833 Y107.95
M204 S600
G1 F1200 X107.95 Y107.833 E8.60658
G1 X108.491 Y107.349 E8.63073
G1 X109.082 Y106.926 E8.6549
G1 X109.716 Y106.572 E8.67905
G1 X110.385 Y106.289 E8.70321
G1 X111.081 Y106.081 E8.72737
G1 X111.796 Y105.951 E8.75154
G1 X112.617 Y105.9 E8.7789
G1 X122.383 Y105.9 E9.10372
G1 X123.108 Y105.94 E9.12787
G1 X123.825 Y106.059 E9.15204
G1 X124.524 Y106.257 E9.17621
G1 X125.197 Y106.53 E9.20036
G1 X125.836 Y106.875 E9.22452
G1 X126.433 Y107.289 E9.24868
G1 X127.05 Y107.833 E9.27604
G1 X127.167 Y107.95 E9.28154
G1 X127.651 Y108.491 E9.30568
G1 X128.074 Y109.082 E9.32986
G1 X128.428 Y109.716 E9.35401
G1 X128.711 Y110.385 E9.37817
G1 X128.919 Y111.081 E9.40233
G1 X129.049 Y111.796 E9.4265
G1 X129.1 Y112.617 E9.45386
G1 X129.1 Y122.383 E9.77868
G1 X129.06 Y123.108 E9.80283
G1 X128.941 Y123.825 E9.827
G1 X128.743 Y124.524 E9.85117
G1 X128.47 Y125.197 E9.87532
G1 X128.125 Y125.836 E9.89947
G1 X127.711 Y126.433 E9.92364
G1 X127.167 Y127.05 E9.951
G1 X127.05 Y127.167 E9.9565
G1 X126.509 Y127.651 E9.98064
G1 X125.918 Y128.074 E10.00482
G1 X125.284 Y128.428 E10.02897
G1 X124.615 Y128.711 E10.05313
G1 X123.919 Y128.919 E10.07729
G1 X123.204 Y129.049 E10.10146
G1 X122.383 Y129.1 E10.12882
G1 X112.617 Y129.1 E10.45364
G1 X111.892 Y129.06 E10.47779
G1 X111.175 Y128.941 E10.50196
G1 X110.476 Y128.743 E10.52612
G1 X109.803 Y128.47 E10.55028
G1 X109.164 Y128.125 E10.57443
G1 X108.567 Y127.711 E10.5986
G1 X107.95 Y127.167 E10.62596
G1 X107.833 Y127.05 E10.63146
G1 X107.349 Y126.509 E10.6556
G1 X106.926 Y125.918 E10.67978
G1 X106.572 Y125.284 E10.70393
G1 X106.289 Y124.615 E10.72809
G1 X106.081 Y123.919 E10.75225
G1 X105.951 Y123.204 E10.77642
G1 X105.9 Y122.383 E10.80378
G1 X105.9 Y112.617 E11.1286
G1 X105.94 Y111.892 E11.15275
G1 X106.059 Y111.175 E11.17692
G1 X106.257 Y110.476 E11.20108
G1 X106.53 Y109.803 E11.22524
G1 X106.875 Y109.164 E11.24939
G1 X107.289 Y108.567 E11.27356
G1 X107.833 Y107.95 E11.30091
M204 S500
G0 F6000 X108.116 Y108.233
M204 S600
G1 F1200 X108.233 Y108.116 E11.30642
G1 X108.758 Y107.647 E11.32983
G1 X109.333 Y107.241 E11.35324
G1 X109.951 Y106.903 E11.37667
G1 X110.602 Y106.636 E11.40007
G1 X111.28 Y106.446 E11.42349
G1 X111.975 Y106.333 E11.44691
G1 X112.617 Y106.3 E11.46829
G1 X122.383 Y106.3 E11.79311
G1 X123.086 Y106.34 E11.81653
G1 X123.78 Y106.459 E11.83995
G1 X124.455 Y106.657 E11.86335
G1 X125.104 Y106.929 E11.88675
G1 X125.718 Y107.274 E11.91018
G1 X126.289 Y107.685 E11.93358
G1 X126.767 Y108.116 E11.95498
G1 X126.884 Y108.233 E11.96049
G1 X127.353 Y108.758 E11.9839
G1 X127.759 Y109.333 E12.00731
G1 X128.097 Y109.951 E12.03074
G1 X128.364 Y110.602 E12.05414
G1 X128.554 Y111.28 E12.07756
G1 X128.667 Y111.975 E12.10098
G1 X128.7 Y112.617 E12.12236
G1 X128.7 Y122.383 E12.44718
G1 X128.66 Y123.086 E12.4706
G1 X128.541 Y123.78 E12.49402
G1 X128.343 Y124.455 E12.51742
G1 X128.071 Y125.104 E12.54082
G1 X127.726 Y125.718 E12.56425
G1 X127.315 Y126.289 E12.58765
G1 X126.884 Y126.767 E12.60905
G1 X126.767 Y126.884 E12.61456
G1 X126.242 Y127.353 E12.63797
G1 X125.667 Y127.759 E12.66138
G1 X125.049 Y128.097 E12.68481
G1 X124.398 Y128.364 E12.70821
G1 X123.72 Y128.554 E12.73163
G1 X123.025 Y128.667 E12.75505
G1 X122.383 Y128.7 E12.77643
G1 X112.617 Y128.7 E13.10125
G1 X111.914 Y128.66 E13.12467
G1 X111.22 Y128.541 E13.14809
G1 X110.545 Y128.343 E13.17149
G1 X109.896 Y128.071 E13.19489
G1 X109.282 Y127.726 E13.21832
G1 X108.711 Y127.315 E13.24172
G1 X108.233 Y126.884 E13.26312
G1 X108.116 Y126.767 E13.26863
G1 X107.647 Y126.242 E13.29204
G1 X107.241 Y125.667 E13.31545
G1 X106.903 Y125.049 E13.33888
G1 X106.636 Y124.398 E13.36228
G1 X106.446 Y123.72 E13.3857
G1 X106.333 Y123.025 E13.40912
G1 X106.3 Y122.383 E13.4305
G1 X106.3 Y112.617 E13.75532
G1 X106.34 Y111.914 E13.77874
G1 X106.459 Y111.22 E13.80216
G1 X106.657 Y110.545 E13.82556
G1 X106.929 Y109.896 E13.84896
G1 X107.274 Y109.282 E13.87239
G1 X107.685 Y108.711 E13.89579
G1 X108.116 Y108.233 E13.91719
M204 S500
G0 F6000 X108.399 Y108.516
M204 S600
G1 F1200 X108.516 Y108.399 E13.9227
G1 X109.025 Y107.946 E13.94536
G1 X109.583 Y107.557 E13.96799
G1 X110.183 Y107.235 E13.99063
G1 X110.817 Y106.986 E14.01329
G1 X111.476 Y106.813 E14.03595
G1 X112.15 Y106.719 E14.05858
G1 X112.617 Y106.7 E14.07413
G1 X122.383 Y106.7 E14.39895
G1 X123.063 Y106.74 E14.4216
G1 X123.733 Y106.859 E14.44424
G1 X124.385 Y107.056 E14.46689
G1 X125.009 Y107.328 E14.48953
G1 X125.597 Y107.672 E14.51219
G1 X126.141 Y108.082 E14.53485
G1 X126.484 Y108.399 E14.55038
G1 X126.601 Y108.516 E14.55588
G1 X127.054 Y109.025 E14.57855
G1 X127.443 Y109.583 E14.60117
G1 X127.765 Y110.183 E14.62382
G1 X128.014 Y110.817 E14.64647
G1 X128.187 Y111.476 E14.66913
G1 X128.281 Y112.15 E14.69177
G1 X128.3 Y112.617 E14.70731
G1 X128.3 Y122.383 E15.03213
G1 X128.26 Y123.063 E15.05479
G1 X128.141 Y123.733 E15.07742
G1 X127.944 Y124.385 E15.10008
G1 X127.672 Y125.009 E15.12272
G1 X127.328 Y125.597 E15.14537
G1 X126.918 Y126.141 E15.16803
G1 X126.601 Y126.484 E15.18356
G1 X126.484 Y126.601 E15.18907
G1 X125.975 Y127.054 E15.21173
G1 X125.417 Y127.443 E15.23436
G1 X124.817 Y127.765 E15.257
G1 X124.183 Y128.014 E15.27966
G1 X123.524 Y128.187 E15.30232
G1 X122.85 Y128.281 E15.32495
G1 X122.383 Y128.3 E15.3405
G1 X112.617 Y128.3 E15.66532
G1 X111.937 Y128.26 E15.68797
G1 X111.267 Y128.141 E15.71061
G1 X110.615 Y127.944 E15.73326
G1 X109.991 Y127.672 E15.7559
G1 X109.403 Y127.328 E15.77856
G1 X108.859 Y126.918 E15.80122
G1 X108.516 Y126.601 E15.81675
G1 X108.399 Y126.484 E15.82225
G1 X107.946 Y125.975 E15.84492
G1 X107.557 Y125.417 E15.86754
G1 X107.235 Y124.817 E15.89019
G1 X106.986 Y124.183 E15.91284
G1 X106.813 Y123.524 E15.9355
G1 X106.719 Y122.85 E15.95814
G1 X106.7 Y122.383 E15.97368
G1 X106.7 Y112.617 E16.2985
G1 X106.74 Y111.937 E16.32116
G1 X106.859 Y111.267 E16.34379
G1 X107.056 Y110.615 E16.36645
G1 X107.328 Y109.991 E16.38909
G1 X107.672 Y109.403 E16.41174
G1 X108.082 Y108.859 E16.4344
G1 X108.399 Y108.516 E16.44993
M204 S500
G0 F6000 X108.682 Y108.799
M204 S600
G1 F1200 X108.799 Y108.682 E16.45544
G1 X109.291 Y108.246 E16.4773
G1 X109.832 Y107.874 E16.49914
G1 X110.414 Y107.57 E16.52098
G1 X111.029 Y107.339 E16.54283
G1 X111.668 Y107.184 E16.5647
G1 X112.617 Y107.1 E16.59639
G1 X122.383 Y107.1 E16.9212
G1 X123.039 Y107.14 E16.94306
G1 X123.685 Y107.259 E16.96491
G1 X124.312 Y107.456 E16.98677
G1 X124.91 Y107.728 E17.00862
G1 X125.471 Y108.07 E17.03047
G1 X126.201 Y108.682 E17.06216
G1 X126.318 Y108.799 E17.06766
G1 X126.754 Y109.291 E17.08953
G1 X127.126 Y109.832 E17.11136
G1 X127.43 Y110.414 E17.1332
G1 X127.661 Y111.029 E17.15505
G1 X127.816 Y111.668 E17.17692
G1 X127.9 Y112.617 E17.20861
G1 X127.9 Y122.383 E17.53343
G1 X127.86 Y123.039 E17.55529
G1 X127.741 Y123.685 E17.57713
G1 X127.544 Y124.312 E17.59899
G1 X127.272 Y124.91 E17.62084
G1 X126.93 Y125.471 E17.6427
G1 X126.318 Y126.201 E17.67438
G1 X126.201 Y126.318 E17.67988
G1 X125.709 Y126.754 E17.70175
G1 X125.168 Y127.126 E17.72359
G1 X124.586 Y127.43 E17.74542
G1 X123.971 Y127.661 E17.76727
G1 X123.332 Y127.816 E17.78914
G1 X122.383 Y127.9 E17.82083
G1 X112.617 Y127.9 E18.14565
G1 X111.961 Y127.86 E18.16751
G1 X111.315 Y127.741 E18.18936
G1 X110.688 Y127.544 E18.21122
G1 X110.09 Y127.272 E18.23307
G1 X109.529 Y126.93 E18.25492
G1 X108.799 Y126.318 E18.2866
G1 X108.682 Y126.201 E18.29211
G1 X108.246 Y125.709 E18.31397
G1 X107.874 Y125.168 E18.33581
G1 X107.57 Y124.586 E18.35765
G1 X107.339 Y123.971 E18.3795
G1 X107.184 Y123.332 E18.40137
G1 X107.1 Y122.383 E18.43305
G1 X107.1 Y112.617 E18.75787
G1 X107.14 Y111.961 E18.77973
G1 X107.259 Y111.315 E18.80158
G1 X107.456 Y110.688 E18.82344
G1 X107.728 Y110.09 E18.84529
G1 X108.07 Y109.529 E18.86714
G1 X108.682 Y108.799 E18.89883
M204 S500
G0 F6000 X108.964 Y109.081
M204 S600
G1 F1200 X109.081 Y108.964 E18.90433
G1 X109.556 Y108.547 E18.92535
G1 X110.079 Y108.192 E18.94638
G1 X110.643 Y107.906 E18.96741
G1 X111.238 Y107.694 E18.98842
G1 X111.856 Y107.558 E19.00946
G1 X112.617 Y107.5 E19.03485
G1 X122.383 Y107.5 E19.35967
G1 X123.014 Y107.54 E19.3807
G1 X123.635 Y107.659 E19.40173
G1 X124.235 Y107.856 E19.42273
G1 X124.807 Y108.127 E19.44378
G1 X125.339 Y108.467 E19.46478
G1 X125.919 Y108.964 E19.49019
G1 X126.036 Y109.081 E19.49569
G1 X126.453 Y109.556 E19.51671
G1 X126.808 Y110.079 E19.53774
G1 X127.094 Y110.643 E19.55877
G1 X127.306 Y111.238 E19.57978
G1 X127.442 Y111.856 E19.60082
G1 X127.5 Y112.617 E19.62621
G1 X127.5 Y122.383 E19.95103
G1 X127.46 Y123.014 E19.97206
G1 X127.341 Y123.635 E19.99309
G1 X127.144 Y124.235 E20.01409
G1 X126.873 Y124.807 E20.03514
G1 X126.533 Y125.339 E20.05614
G1 X126.036 Y125.919 E20.08155
G1 X125.919 Y126.036 E20.08705
G1 X125.444 Y126.453 E20.10807
G1 X124.921 Y126.808 E20.1291
G1 X124.357 Y127.094 E20.15013
G1 X123.762 Y127.306 E20.17114
G1 X123.144 Y127.442 E20.19218
G1 X122.383 Y127.5 E20.21757
G1 X112.617 Y127.5 E20.54239
G1 X111.986 Y127.46 E20.56342
G1 X111.365 Y127.341 E20.58445
G1 X110.765 Y127.144 E20.60545
G1 X110.193 Y126.873 E20.6265
G1 X109.661 Y126.533 E20.6475
